!!!COM: Schiørring, Niels
!!!CDT: 1743-1798
!!!OPR@@DA: Choral-Bog
!!!ONM: 33
!!!OTL@@DA: Hiertelig mig nu længes
**kern	**fb	**kern	**kern	**kern	**kern	**kern	**kern	**kern
*part6	*part6	*part6	*part5	*part5	*part4	*part3	*part2	*part1
*staff8	*	*staff7	*staff6	*staff5	*staff4	*staff3	*staff2	*staff1
*clefF4	*	*clefC1	*clefF4	*clefC1	*clefF4	*clefC4	*clefC3	*clefC1
*k[]	*	*k[]	*k[]	*k[]	*k[]	*k[]	*k[]	*k[]
*M4/4	*	*M4/4	*M4/4	*M4/4	*M4/4	*M4/4	*M4/4	*M4/4
*met(c)	*	*met(c)	*met(c)	*met(c)	*met(c)	*met(c)	*met(c)	*met(c)
*MM180	*	*MM180	*MM180	*MM180	*MM180	*MM180	*MM180	*MM180
*	*	*	*^	*^	*	*	*	*
2E	#	2e	2G#X	2E	2e	2B	2E	2G#X	2B	2e
=1	=1	=1	=1	=1	=1	=1	=1	=1	=1	=1
2C	6	2a	1A	2C	2a	1e	2C	2A	2e	2a
2C#X	5	2g	.	2C#X	2gni	.	2C#X	2A	2e	2g
=2	=2	=2	=2	=2	=2	=2	=2	=2	=2	=2
2D	.	2f	2A	2D	2f	2d	2D	2A	2d	2f
2E	#	2e	2G#X	2E	2e	2B	2E	2G#X	2B	2e
=3	=3	=3	=3	=3	=3	=3	=3	=3	=3	=3
1F	6	1d	1A	1F	1d	1A	1F	1A	1A	1d
=4	=4	=4	=4	=4	=4	=4	=4	=4	=4	=4
2E	#	2e	2G#X	2E	2e	2B	2E	2G#X	2B	2e
2GG#X	6 5	2b	2ryy@	2GG#X	2d	2e	2GG#X	2d	2e	2b
=5	=5	=5	=5	=5	=5	=5	=5	=5	=5	=5
2AA	.	2cc	2ryy@	2AA	2c	2e	2AA	2c	2e	2cc
2F	.	2cc	[2A	2F	2cc	2f	2F	[2A	2f	2cc
=6	=6	=6	=6	=6	=6	=6	=6	=6	=6	=6
2D	6 5	2b	2A]	2D	2b	2f	2D	2A]	2f	2b
2E	#	2b	4G#X	2E	2b	2e	2E	2G#X	4e	2b
.	.	.	4d	.	.	.	.	.	4d	.
=	=	=	=	=	=	=	=	=	=	=
2AA	.	2a	2ryy	2AA	2c	2e	2AA	2A	2c	2a
=7:|!	=7:|!	=7:|!	=7:|!	=7:|!	=7:|!	=7:|!	=7:|!	=7:|!	=7:|!	=7:|!
*	*	*	*	*	*	*	*^	*	*	*
2FF#X	5	2cc	2ryy	2FF#X	2d	2a	2F#X	2FF#X	2A	2d	2cc
=8	=8	=8	=8	=8	=8	=8	=8	=8	=8	=8	=8
2GG	.	2b	2ryy@	2GG	2d	2g	2G	2GG	2B	2d	2b
*	*	*	*	*	*	*	*v	*v	*	*	*
2C	.	2g	2c	2C	2g	2e	2C	2c	2e	2g
=9	=9	=9	=9	=9	=9	=9	=9	=9	=9	=9
2F	.	2a	2c	2F	2a	1f	2F	2c	2f	2a
2D	6	2b	2d	2D	2b	.	2D	2d	2f	2b
=10	=10	=10	=10	=10	=10	=10	=10	=10	=10	=10
2C	.	1cc	2G	2C	1cc	2e	(2C	(2e	(2g	1cc
*	*	*	*	*	*	*	*^	*	*	*
4AA	6	.	2F	4AA	.	2f	4A	4AA	2f)	2a)	.
4FF	.	.	.	4FF	.	.	4F)	4FF	.	.	.
=11	=11	=11	=11	=11	=11	=11	=11	=11	=11	=11	=11
2C	.	2cc	2G	2C	2cc	2e	2c	2C	2e	2g	2cc
*	*	*	*	*	*	*	*v	*v	*	*	*
2B-X	6	2g	2ryy@	2B-X	2d	2d	2B-X	2d	2d	2g
=12	=12	=12	=12	=12	=12	=12	=12	=12	=12	=12
2A	#	2a	2ryy@	2A	2c#X	2e	2A	2c#X	2e	2a
2C#X	5	2g	2A	2C#X	2g	[2e	2C#X	2A	[2e	2g
=13	=13	=13	=13	=13	=13	=13	=13	=13	=13	=13
2D	9	2f	2A	2D	2f	2e]	2D	2A	2e]	2f
2GG#X	7 5	2f	2ryy@	2GG#X	[2B	[2d	2GG#X	[2B	[2d	2f
=14	=14	=14	=14	=14	=14	=14	=14	=14	=14	=14
2AA	9 4	2e	1ryy	2AA	4B]	4d]	2AA	(4B]	(4d]	2e
*	*	*	*	*	*	*	*^	*	*	*
2FF#X	5	2cc	.	2FF#X	2d	2a	2F#X	2FF#X	2A	2d	2cc
=15	=15	=15	=15	=15	=15	=15	=15	=15	=15	=15	=15
2GG	.	2b	1ryy	2GG	2d	2g	2G	2GG	2G	2d	2b
*	*	*	*	*	*	*	*v	*v	*	*	*
2BB	6	2dd	.	2BB	2d	2g	2BB	2d	2g	2dd
=16	=16	=16	=16	=16	=16	=16	=16	=16	=16	=16
2C	.	2cc	1ryy	2C	2e	2g	2C	2e	2g	2cc
2C#X	7 5	2b	.	2C#X	2e	[2g	2C#X	2e	[2g	2b
=17	=17	=17	=17	=17	=17	=17	=17	=17	=17	=17
1D	4	1a	1A	1D	1a	2g]	1D	1A	2g]	1a
=18	=18	=18	=18	=18	=18	=18	=18	=18	=18	=18
*	*	*	*	*	*	*^	*	*	*	*
2GG	#	2b	2G	2GG	2b	2d	2g/	2GG	2G	2g	2b
*	*	*	*	*	*	*v	*v	*	*	*	*
2C	.	2e	2G	2C	2e	2c	2C	2G	2e	2e
=19	=19	=19	=19	=19	=19	=19	=19	=19	=19	=19
2BB	5	2f	1G	2BB	2f	2d	2BB	2G	2d	2f
[2C	.	2e	.	[2C	2e	2c	[2C	2G	2c	2e
=20	=20	=20	=20	=20	=20	=20	=20	=20	=20	=20
2C]	4 2	2d	1F	2C]	2d	2A	2C]	2F	2A	2d
4BB	.	2d	.	4BB	2d	[2d	4BB	2F	[2d	2d
4AA	.	.	.	4AA	.	.	4AA	.	.	.
=21	=21	=21	=21	=21	=21	=21	=21	=21	=21	=21
2GG#X	5	[1e	4E	2GG#X	[1e	2d]	(2GG#X	(4E	(2d]	[1e
.	.	.	4ryy@	.	.	.	.	2B	.	.
2AA	9	.	2ryy@	2AA	.	2c	2AA	.	2c	.
=22	=22	=22	=22	=22	=22	=22	=22	=22	=22	=22
*	*	*	*	*	*	*	*^	*	*	*
2EE	#	2e]	2ryy	2EE	2G#X	2B	2E)	2EE	2G#X)	2B)	2e]
*	*	*	*v	*v	*	*	*v	*v	*	*	*
*	*	*	*	*v	*v	*	*	*	*
==	==	==	==	==	==	==	==	==
*-	*-	*-	*-	*-	*-	*-	*-	*-
!!!system-decoration: {(s1,s2,s3,s4)}{(s5,s6)}{(s7,s8)}
!!!RDF**kern: i = editorial accidental
!!!RDF**kern: > = above
!!!RDF**kern: < = below
!!!AGN: chorale
!!!EED: Derek Remeš
!!!EED2: Victor Phan
!!!END: 2023/11/28
!!!ENC: Wolfgang Drescher
!!!EEV: 2023/11/29
!!!title: @{ONM}. @{OTL}